modules/hawcons-stroke/icons/icon-52-notebook-text.svg

<?xml version="1.0" encoding="UTF-8" standalone="no"?>
<svg width="32px" height="32px" viewBox="0 0 32 32" version="1.1" xmlns="http://www.w3.org/2000/svg" xmlns:xlink="http://www.w3.org/1999/xlink" xmlns:sketch="http://www.bohemiancoding.com/sketch/ns">
    <!-- Generator: Sketch 3.0.3 (7891) - http://www.bohemiancoding.com/sketch -->
    <title>icon 52 notebook text</title>
    <desc>Created with Sketch.</desc>
    <defs></defs>
    <g id="Page-1" stroke="none" stroke-width="1" fill="none" fill-rule="evenodd" sketch:type="MSPage">
        <g id="icon-52-notebook-text" sketch:type="MSArtboardGroup" fill="#929292">
            <path d="M22,4 L19,4 L19,3 L18,3 L18,4 L15,4 L15,3 L14,3 L14,4 L14,4 L11,4 L11,3 L10,3 L10,4 L8.99742191,4 C7.89427625,4 7,4.88976324 7,6.00359486 L7,26.9964051 C7,28.10296 7.89092539,29 8.99742191,29 L24.0025781,29 C25.1057238,29 26,28.1102368 26,26.9964051 L26,6.00359486 C26,4.89703997 25.1090746,4 24.0025781,4 L23,4 L23,3 L22,3 L22,4 L22,4 Z M22,5 L19,5 L19,6 L18,6 L18,5 L15,5 L15,6 L14,6 L14,5 L11,5 L11,6 L10,6 L10,5 L8.9999602,5 C8.44769743,5 8,5.43891776 8,6.00307055 L8,26.9969294 C8,27.55091 8.45470893,28 8.9999602,28 L24.0000398,28 C24.5523026,28 25,27.5610822 25,26.9969294 L25,6.00307055 C25,5.44908998 24.5452911,5 24.0000398,5 L23,5 L23,6 L22,6 L22,5 L22,5 Z M10,9 L10,10 L23,10 L23,9 L10,9 L10,9 Z M10,12 L10,13 L23,13 L23,12 L10,12 L10,12 Z M10,15 L10,16 L23,16 L23,15 L10,15 L10,15 Z M10,18 L10,19 L23,19 L23,18 L10,18 L10,18 Z M10,21 L10,22 L23,22 L23,21 L10,21 L10,21 Z M10,24 L10,25 L23,25 L23,24 L10,24 L10,24 Z" id="notebook-text" sketch:type="MSShapeGroup"></path>
        </g>
    </g>
</svg>

<svg width="32" height="32" xmlns="http://www.w3.org/2000/svg"><path d="M22 4h-3V3h-1v1h-3V3h-1v1h-3V3h-1v1H8.997C7.894 4 7 4.89 7 6.004v20.992C7 28.103 7.89 29 8.997 29h15.006C25.106 29 26 28.11 26 26.996V6.004C26 4.897 25.11 4 24.003 4H23V3h-1v1zm0 1h-3v1h-1V5h-3v1h-1V5h-3v1h-1V5H9c-.552 0-1 .439-1 1.003v20.994C8 27.55 8.455 28 9 28h15c.552 0 1-.439 1-1.003V6.003C25 5.45 24.545 5 24 5h-1v1h-1V5zM10 9v1h13V9H10zm0 3v1h13v-1H10zm0 3v1h13v-1H10zm0 3v1h13v-1H10zm0 3v1h13v-1H10zm0 3v1h13v-1H10z" fill="#929292" fill-rule="evenodd"/></svg>
